svgs/solid/draw-square.svg

<svg xmlns="http://www.w3.org/2000/svg" viewBox="0 0 448 512"><path d="M416 360.88V151.12c19.05-11.09 32-31.49 32-55.12 0-35.35-28.65-64-64-64-23.63 0-44.04 12.95-55.12 32H119.12C108.04 44.95 87.63 32 64 32 28.65 32 0 60.65 0 96c0 23.63 12.95 44.04 32 55.12v209.75C12.95 371.96 0 392.37 0 416c0 35.35 28.65 64 64 64 23.63 0 44.04-12.95 55.12-32h209.75c11.09 19.05 31.49 32 55.12 32 35.35 0 64-28.65 64-64 .01-23.63-12.94-44.04-31.99-55.12zm-320 0V151.12A63.825 63.825 0 0 0 119.12 128h209.75a63.825 63.825 0 0 0 23.12 23.12v209.75a63.825 63.825 0 0 0-23.12 23.12H119.12A63.798 63.798 0 0 0 96 360.88zM400 96c0 8.82-7.18 16-16 16s-16-7.18-16-16 7.18-16 16-16 16 7.18 16 16zM64 80c8.82 0 16 7.18 16 16s-7.18 16-16 16-16-7.18-16-16 7.18-16 16-16zM48 416c0-8.82 7.18-16 16-16s16 7.18 16 16-7.18 16-16 16-16-7.18-16-16zm336 16c-8.82 0-16-7.18-16-16s7.18-16 16-16 16 7.18 16 16-7.18 16-16 16z"/></svg>

<svg xmlns="http://www.w3.org/2000/svg" viewBox="0 0 448 512"><!--! Font Awesome Pro 6.0.0-alpha3 by @fontawesome - https://fontawesome.com License - https://fontawesome.com/license (Commercial License) --><path d="M416 360.9v-209.8C435 139.1 448 119.6 448 96c0-35.38-28.62-64-64-64c-23.62 0-43.1 13-55.12 32H119.1C107.1 45 87.62 32 64 32C28.62 32 0 60.62 0 96c0 23.62 13 43.1 32 55.12v209.8C13 372 0 392.4 0 416c0 35.38 28.62 64 64 64c23.62 0 43.1-13 55.12-32h209.8C340 467 360.4 480 384 480c35.38 0 64-28.62 64-64C448 392.4 435 372 416 360.9zM96 360.9v-209.8C105.6 145.5 113.5 137.6 119.1 128h209.8C334.5 137.6 342.4 145.5 352 151.1v209.8C342.4 366.5 334.5 374.4 328.9 384H119.1C113.5 374.4 105.6 366.5 96 360.9zM400 96c0 8.875-7.125 16-16 16S368 104.9 368 96s7.125-16 16-16S400 87.12 400 96zM64 80c8.875 0 16 7.125 16 16S72.88 112 64 112S48 104.9 48 96S55.12 80 64 80zM48 416c0-8.875 7.125-16 16-16s16 7.125 16 16S72.88 432 64 432S48 424.9 48 416zM384 432c-8.875 0-16-7.125-16-16s7.125-16 16-16s16 7.125 16 16S392.9 432 384 432z"/></svg>
